X:1
T: The Forth Bridge
C:W. Blyth
R:Reel
Q: 232
K:D
M:4/4
L:1/8
|:A,|D2 FD AD FD|A,D FA Ad cd|A,1/2A,1/2A, CE AE CE|ed cB AG FE|
D2 FD AD FD|A,D FA Bc dF|GF GA Bc dB|AG FE D3a|
^ga fd AF D=g|fa fd AF Df|gf ge cA ce|gf ed cd ef|
ga fg ef de|cd Bc AB FA|GF GA Bc de|fg ef d3:|
